actions/24/document-export-symbolic.svg

<svg xmlns="http://www.w3.org/2000/svg" viewBox="0 0 24 24"><title>elementary Symbolic Icon Theme</title><path d="M16 7v3h-6v3h6v3l7.5-4.5z" color="#bebebe" fill="#bebebe" overflow="visible"/><path d="M4 2c-1.108 0-2 .892-2 2v15c0 1.108.892 2 2 2h15c1.108 0 1.73-.925 2-2v-4l-2 1.32V18c0 .554-.446 1-1 1H5c-.554 0-1-.446-1-1V5c0-.554.446-1 1-1h13c.554 0 1 .446 1 1v1.733L21 8V4c0-1.108-.892-2-2-2z" color="#bebebe" fill="#bebebe" overflow="visible"/></svg>

<?xml version="1.0" encoding="UTF-8" standalone="no"?>
<svg
   xmlns:dc="http://purl.org/dc/elements/1.1/"
   xmlns:cc="http://creativecommons.org/ns#"
   xmlns:rdf="http://www.w3.org/1999/02/22-rdf-syntax-ns#"
   xmlns:svg="http://www.w3.org/2000/svg"
   xmlns="http://www.w3.org/2000/svg"
   version="1.1"
   width="24"
   height="24"
   id="svg7384">
  <title
     id="title9167">elementary Symbolic Icon Theme</title>
  <defs
     id="defs11" />
  <metadata
     id="metadata90">
    <rdf:RDF>
      <cc:Work
         rdf:about="">
        <dc:format>image/svg+xml</dc:format>
        <dc:type
           rdf:resource="http://purl.org/dc/dcmitype/StillImage" />
        <dc:title>elementary Symbolic Icon Theme</dc:title>
      </cc:Work>
    </rdf:RDF>
  </metadata>
  <path
     d="M 16,6.9999998 16,10 l -6,0 0,3 6,0 0,3 7.5,-4.5 z"
     id="path12810"
     style="color:#bebebe;fill:#bebebe;fill-opacity:1;fill-rule:nonzero;stroke:none;stroke-width:1;marker:none;visibility:visible;display:inline;overflow:visible;enable-background:accumulate" />
  <path
     style="color:#bebebe;fill:#bebebe;fill-opacity:1;fill-rule:nonzero;stroke:none;stroke-width:1;marker:none;visibility:visible;display:inline;overflow:visible;enable-background:accumulate"
     d="M 4,2 C 2.892,2 2,2.892 2,4 l 0,15 c 0,1.108 0.892,2 2,2 l 15,0 c 1.108,0 1.731271,-0.925082 2,-2 L 21,15 19,16.320704 19,18 c 0,0.554 -0.446,1 -1,1 L 5,19 C 4.446,19 4,18.554 4,18 L 4,5 C 4,4.446 4.446,4 5,4 l 13,0 c 0.554,0 1,0.446 1,1 L 19,6.732747 21,8 21,4 C 21,2.892 20.108,2 19,2 z"
     id="rect2988" />
</svg>
